src/assets/images/2-logo.svg

<svg width="976" height="235" fill="none" xmlns="http://www.w3.org/2000/svg"><path d="M25 187c-2.667 0-4.267-.2-4.8-.6-.533-.533-.8-2.267-.8-5.2V41.4c0-2.667.2-4.2.6-4.6.533-.533 2.067-.8 4.6-.8h71c1.467 0 2.333.267 2.6.8.267.4.4 1.2.4 2.4V54c0 1.333-.2 2.267-.6 2.8-.4.4-1.2.6-2.4.6H41.4v40.8H93c2 0 3 1.067 3 3.2v15c0 2.267-1 3.4-3 3.4H41.4v45.6H98c1.867 0 2.8 1.133 2.8 3.4v15c0 2.133-.933 3.2-2.8 3.2H25zM184.434 39.6c0 2.267-.6 3.267-1.8 3-1.6-.4-3.266-.733-5-1-1.733-.4-3.4-.6-5-.6-3.333 0-5.733.867-7.2 2.6-1.466 1.6-2.533 3.667-3.2 6.2-.266 1.333-.533 3.133-.8 5.4-.266 2.267-.4 4.8-.4 7.6v13.4h19.2c1.6 0 2.4.8 2.4 2.4V94c0 .667-.266 1.267-.8 1.8-.4.4-.933.6-1.6.6h-19.2v88.2c0 1.6-.8 2.4-2.4 2.4h-16.4c-1.6 0-2.4-.8-2.4-2.4V96.4h-16.8c-.666 0-1.266-.2-1.8-.6-.4-.533-.6-1.133-.6-1.8V78.6c0-.667.2-1.2.6-1.6.534-.533 1.134-.8 1.8-.8h16.6v-12c0-6.4.4-12.2 1.2-17.4.934-5.2 2.6-9.8 5-13.8 2.134-3.333 5.134-6.067 9-8.2 4-2.267 9-3.4 15-3.4 2.667 0 5.267.2 7.8.6 2.667.267 4.734.667 6.2 1.2.934.533 1.4 1.467 1.4 2.8l-.8 13.6zm72.657 0c0 2.267-.6 3.267-1.8 3a55.29 55.29 0 00-5-1c-1.734-.4-3.4-.6-5-.6-3.334 0-5.734.867-7.2 2.6-1.467 1.6-2.534 3.667-3.2 6.2-.267 1.333-.534 3.133-.8 5.4-.267 2.267-.4 4.8-.4 7.6v13.4h19.2c1.6 0 2.4.8 2.4 2.4V94c0 .667-.267 1.267-.8 1.8-.4.4-.934.6-1.6.6h-19.2v88.2c0 1.6-.8 2.4-2.4 2.4h-16.4c-1.6 0-2.4-.8-2.4-2.4V96.4h-16.8c-.667 0-1.267-.2-1.8-.6-.4-.533-.6-1.133-.6-1.8V78.6c0-.667.2-1.2.6-1.6.533-.533 1.133-.8 1.8-.8h16.6v-12c0-6.4.4-12.2 1.2-17.4.933-5.2 2.6-9.8 5-13.8 2.133-3.333 5.133-6.067 9-8.2 4-2.267 9-3.4 15-3.4 2.666 0 5.266.2 7.8.6 2.666.267 4.733.667 6.2 1.2.933.533 1.4 1.467 1.4 2.8l-.8 13.6zm20.256 157.6c-.667 0-1.267-.267-1.8-.8-.4-.4-.6-.933-.6-1.6V89.4c0-.667.2-1.2.6-1.6.533-.533 1.133-.8 1.8-.8h16.8a1.9 1.9 0 011.6.8c.533.4.8.933.8 1.6v105.4c0 .667-.267 1.2-.8 1.6-.4.533-.933.8-1.6.8h-16.8zm8.6-132c-3.867 0-7.133-1.267-9.8-3.8-2.533-2.667-3.8-5.867-3.8-9.6 0-3.867 1.267-7.133 3.8-9.8 2.667-2.667 5.933-4 9.8-4 3.867 0 7.133 1.333 9.8 4 2.667 2.667 4 5.933 4 9.8 0 3.733-1.333 6.933-4 9.6-2.667 2.533-5.933 3.8-9.8 3.8zm112.637 121.2c-1.466.533-3.266 1-5.4 1.4a88.37 88.37 0 01-7 1c-2.4.267-5 .4-7.8.4a76.278 76.278 0 01-7.8 0c-8.4-.533-15.866-2.333-22.4-5.4-6.4-3.2-11.8-7.333-16.2-12.4-4.4-5.067-7.733-11-10-17.8-2.133-6.933-3.2-14.4-3.2-22.4 0-8.4 1.334-16.133 4-23.2 2.667-7.067 6.4-13.133 11.2-18.2 4.934-5.2 10.8-9.2 17.6-12 6.8-2.8 14.4-4.2 22.8-4.2 4.134 0 8.267.267 12.4.8 4.267.4 8.4 1.267 12.4 2.6.534.133.934.4 1.2.8.267.4.334 1.2.2 2.4l-1.8 13.8c-.133.933-.466 1.6-1 2-.4.4-1.2.467-2.4.2-2.933-1.067-6.4-1.8-10.4-2.2-3.866-.4-7.533-.6-11-.6-10.8 0-19 3.467-24.6 10.4-5.6 6.933-8.4 16.067-8.4 27.4 0 10.933 2.6 19.733 7.8 26.4 5.334 6.667 13 10.6 23 11.8 9.2 1.067 17.4.467 24.6-1.8 1.334-.533 2.134-.6 2.4-.2.4.4.667 1 .8 1.8l1 13.8c.134 1.067.067 1.867-.2 2.4-.133.4-.733.733-1.8 1zm84.275.2c-.933 0-1.533-.067-1.8-.2-.266-.267-.4-.8-.4-1.6v-9c-3.333 4.667-7.6 8.2-12.8 10.6-5.066 2.267-10.2 3.4-15.4 3.4-5.466 0-10.533-.733-15.2-2.2-4.533-1.467-8.466-3.667-11.8-6.6-3.2-2.933-5.733-6.533-7.6-10.8-1.866-4.4-2.8-9.467-2.8-15.2 0-6.8 1.2-12.733 3.6-17.8 2.4-5.2 6.134-9.467 11.2-12.8 5.2-3.467 11.8-6 19.8-7.6 8-1.733 17.667-2.6 29-2.6 0-2.533-.266-5.067-.8-7.6-.533-2.533-1.466-4.8-2.8-6.8-1.2-2-2.933-3.6-5.2-4.8-2.266-1.333-5.133-2-8.6-2-6 0-11.466.8-16.4 2.4a63.394 63.394 0 00-13.6 6.4c-2.133 1.333-3.6 1.933-4.4 1.8-.666-.133-1-.867-1-2.2V86.2c0-.533-.066-1.067-.2-1.6 0-.667.134-1.2.4-1.6.4-.533 1.4-1.267 3-2.2a93.618 93.618 0 0113.8-5.6c4.8-1.467 10.8-2.2 18-2.2 13.467 0 23.4 3.267 29.8 9.8 6.534 6.533 9.8 16.8 9.8 30.8v59.2c.134 4 .4 7.533.8 10.6.267 2.133-.466 3.2-2.2 3.2h-16.2zm-3.6-53.4c-14.8 0-25.4 1.8-31.8 5.4-6.4 3.6-9.6 9-9.6 16.2 0 5.067 1.467 8.867 4.4 11.4 2.934 2.533 6.867 3.8 11.8 3.8 7.6 0 13.667-2.8 18.2-8.4 4.667-5.6 7-14.333 7-26.2v-2.2zm125.185 53.2c-1.467.533-3.267 1-5.4 1.4-2.134.4-4.467.733-7 1-2.4.267-5 .4-7.8.4a76.278 76.278 0 01-7.8 0c-8.4-.533-15.867-2.333-22.4-5.4-6.4-3.2-11.8-7.333-16.2-12.4-4.4-5.067-7.734-11-10-17.8-2.134-6.933-3.2-14.4-3.2-22.4 0-8.4 1.333-16.133 4-23.2 2.666-7.067 6.4-13.133 11.2-18.2 4.933-5.2 10.8-9.2 17.6-12 6.8-2.8 14.4-4.2 22.8-4.2 4.133 0 8.266.267 12.4.8 4.266.4 8.4 1.267 12.4 2.6.533.133.933.4 1.2.8.266.4.333 1.2.2 2.4l-1.8 13.8c-.134.933-.467 1.6-1 2-.4.4-1.2.467-2.4.2-2.934-1.067-6.4-1.8-10.4-2.2-3.867-.4-7.534-.6-11-.6-10.8 0-19 3.467-24.6 10.4-5.6 6.933-8.4 16.067-8.4 27.4 0 10.933 2.6 19.733 7.8 26.4 5.333 6.667 13 10.6 23 11.8 9.2 1.067 17.4.467 24.6-1.8 1.333-.533 2.133-.6 2.4-.2.4.4.666 1 .8 1.8l1 13.8c.133 1.067.066 1.867-.2 2.4-.134.4-.734.733-1.8 1zm26.075-157.2c3.733 0 6.8 1.533 9.2 4.6 2.4 3.067 3.733 6.6 4 10.6.4 4.933.066 9.2-1 12.8-.934 3.467-2.534 6.867-4.8 10.2-2 3.067-4.4 5.733-7.2 8-2.8 2.267-5.934 3.733-9.4 4.4-1.734.8-2.6.467-2.6-1V71c0-1.067.066-1.733.2-2 .266-.4.666-.733 1.2-1 2.266-1.067 4.2-2.6 5.8-4.6 1.733-2.133 2.666-4.533 2.8-7.2-2.8-.667-5.4-2-7.8-4-2.4-2.133-3.6-5-3.6-8.6 0-4.267 1.2-7.733 3.6-10.4 2.533-2.667 5.733-4 9.6-4zm219.823 157.2c-1.466.533-3.266 1-5.4 1.4a88.37 88.37 0 01-7 1c-2.4.267-5 .4-7.8.4a76.278 76.278 0 01-7.8 0c-8.4-.533-15.866-2.333-22.4-5.4-6.4-3.2-11.8-7.333-16.2-12.4-4.4-5.067-7.733-11-10-17.8-2.133-6.933-3.2-14.4-3.2-22.4 0-8.4 1.334-16.133 4-23.2 2.667-7.067 6.4-13.133 11.2-18.2 4.934-5.2 10.8-9.2 17.6-12 6.8-2.8 14.4-4.2 22.8-4.2 4.134 0 8.267.267 12.4.8 4.267.4 8.4 1.267 12.4 2.6.534.133.934.4 1.2.8.267.4.334 1.2.2 2.4l-1.8 13.8c-.133.933-.466 1.6-1 2-.4.4-1.2.467-2.4.2-2.933-1.067-6.4-1.8-10.4-2.2-3.866-.4-7.533-.6-11-.6-10.8 0-19 3.467-24.6 10.4-5.6 6.933-8.4 16.067-8.4 27.4 0 10.933 2.6 19.733 7.8 26.4 5.334 6.667 13 10.6 23 11.8 9.2 1.067 17.4.467 24.6-1.8 1.334-.533 2.134-.6 2.4-.2.4.4.667 1 .8 1.8l1 13.8c.134 1.067.067 1.867-.2 2.4-.133.4-.733.733-1.8 1z" fill="#000"/><path d="M737.499 164.481v-66.34c0-2.17-1.386-4.105-3.484-4.659-21.727-5.731-61.122-5.37-63.016 34.018-1.918 39.889 36.621 49.253 63.156 41.58 2.028-.586 3.344-2.488 3.344-4.599z" fill="#81EC40"/><path d="M737.6 186.4c-1.467.533-3.267 1-5.4 1.4-2.133.4-4.467.733-7 1-2.4.267-5 .4-7.8.4a76.278 76.278 0 01-7.8 0c-8.4-.533-15.867-2.333-22.4-5.4-6.4-3.2-11.8-7.333-16.2-12.4-4.4-5.067-7.733-11-10-17.8-2.133-6.933-3.2-14.4-3.2-22.4 0-8.4 1.333-16.133 4-23.2s6.4-13.133 11.2-18.2c4.933-5.2 10.8-9.2 17.6-12 6.8-2.8 14.4-4.2 22.8-4.2 4.133 0 8.267.267 12.4.8 4.267.4 8.4 1.267 12.4 2.6.533.133.933.4 1.2.8.267.4.333 1.2.2 2.4L737.8 94c-.133.933-.467 1.6-1 2-.4.4-1.2.467-2.4.2-2.933-1.067-6.4-1.8-10.4-2.2-3.867-.4-7.533-.6-11-.6-10.8 0-19 3.467-24.6 10.4-5.6 6.933-8.4 16.067-8.4 27.4 0 10.933 2.6 19.733 7.8 26.4 5.333 6.667 13 10.6 23 11.8 9.2 1.067 17.4.467 24.6-1.8 1.333-.533 2.133-.6 2.4-.2.4.4.667 1 .8 1.8l1 13.8c.133 1.067.067 1.867-.2 2.4-.133.4-.733.733-1.8 1z" fill="#000"/><rect x="645" y="106" width="74" height="20" rx="2" fill="#000"/><rect x="645" y="137" width="74" height="20" rx="2" fill="#000"/><path d="M941.63 88.93c-33.191-9.438-51.371 18.696-56.402 34.157a1.868 1.868 0 00-.088.456c-1.043 15.618 2.387 48.786 24.429 58.395 22.044 9.61 46.672-16.306 56.385-30.668.097-.145.169-.29.225-.455 5.688-16.859 8.642-52.447-24.549-61.885z" fill="#81EC40"/><path d="M897.96 217.601l-1.871-.727a2 2 0 01-1.158-2.54l21.362-59.491 24.621-70.604-22.762 72.238-17.548 59.823a2 2 0 01-2.644 1.301z" fill="#81EC40" stroke="#000" stroke-width="17"/><path d="M886.424 124.151c-9.888 28.774 10.512 49.573 22.16 56.528.151.09.305.155.475.2 15.606 4.185 42.377 3.593 54.298-29.418 11.987-33.19-13.007-64.806-20.552-67.69-7.546-2.883-43.941 4.183-56.381 40.38z" stroke="#000" stroke-width="16"/></svg>

<svg width="976" height="235" viewBox="0 0 976 235" fill="none" xmlns="http://www.w3.org/2000/svg">
<path d="M25 187C22.3333 187 20.7333 186.8 20.2 186.4C19.6667 185.867 19.4 184.133 19.4 181.2V41.4C19.4 38.7333 19.6 37.2 20 36.8C20.5333 36.2667 22.0667 36 24.6 36H95.6C97.0667 36 97.9333 36.2667 98.2 36.8C98.4667 37.2 98.6 38 98.6 39.2V54C98.6 55.3333 98.4 56.2667 98 56.8C97.6 57.2 96.8 57.4 95.6 57.4H41.4V98.2H93C95 98.2 96 99.2667 96 101.4V116.4C96 118.667 95 119.8 93 119.8H41.4V165.4H98C99.8667 165.4 100.8 166.533 100.8 168.8V183.8C100.8 185.933 99.8667 187 98 187H25ZM184.434 39.6C184.434 41.8667 183.834 42.8667 182.634 42.6C181.034 42.2 179.368 41.8667 177.634 41.6C175.901 41.2 174.234 41 172.634 41C169.301 41 166.901 41.8667 165.434 43.6C163.968 45.2 162.901 47.2667 162.234 49.8C161.968 51.1333 161.701 52.9333 161.434 55.2C161.168 57.4667 161.034 60 161.034 62.8V76.2H180.234C181.834 76.2 182.634 77 182.634 78.6V94C182.634 94.6667 182.368 95.2667 181.834 95.8C181.434 96.2 180.901 96.4 180.234 96.4H161.034V184.6C161.034 186.2 160.234 187 158.634 187H142.234C140.634 187 139.834 186.2 139.834 184.6V96.4H123.034C122.368 96.4 121.768 96.2 121.234 95.8C120.834 95.2667 120.634 94.6667 120.634 94V78.6C120.634 77.9333 120.834 77.4 121.234 77C121.768 76.4667 122.368 76.2 123.034 76.2H139.634V64.2C139.634 57.8 140.034 52 140.834 46.8C141.768 41.6 143.434 37 145.834 33C147.968 29.6667 150.968 26.9333 154.834 24.8C158.834 22.5333 163.834 21.4 169.834 21.4C172.501 21.4 175.101 21.6 177.634 22C180.301 22.2667 182.368 22.6667 183.834 23.2C184.768 23.7333 185.234 24.6667 185.234 26L184.434 39.6ZM257.091 39.6C257.091 41.8667 256.491 42.8667 255.291 42.6C253.691 42.2 252.024 41.8667 250.291 41.6C248.557 41.2 246.891 41 245.291 41C241.957 41 239.557 41.8667 238.091 43.6C236.624 45.2 235.557 47.2667 234.891 49.8C234.624 51.1333 234.357 52.9333 234.091 55.2C233.824 57.4667 233.691 60 233.691 62.8V76.2H252.891C254.491 76.2 255.291 77 255.291 78.6V94C255.291 94.6667 255.024 95.2667 254.491 95.8C254.091 96.2 253.557 96.4 252.891 96.4H233.691V184.6C233.691 186.2 232.891 187 231.291 187H214.891C213.291 187 212.491 186.2 212.491 184.6V96.4H195.691C195.024 96.4 194.424 96.2 193.891 95.8C193.491 95.2667 193.291 94.6667 193.291 94V78.6C193.291 77.9333 193.491 77.4 193.891 77C194.424 76.4667 195.024 76.2 195.691 76.2H212.291V64.2C212.291 57.8 212.691 52 213.491 46.8C214.424 41.6 216.091 37 218.491 33C220.624 29.6667 223.624 26.9333 227.491 24.8C231.491 22.5333 236.491 21.4 242.491 21.4C245.157 21.4 247.757 21.6 250.291 22C252.957 22.2667 255.024 22.6667 256.491 23.2C257.424 23.7333 257.891 24.6667 257.891 26L257.091 39.6ZM277.347 197.2C276.68 197.2 276.08 196.933 275.547 196.4C275.147 196 274.947 195.467 274.947 194.8V89.4C274.947 88.7333 275.147 88.2 275.547 87.8C276.08 87.2667 276.68 87 277.347 87H294.147C294.814 87 295.347 87.2667 295.747 87.8C296.28 88.2 296.547 88.7333 296.547 89.4V194.8C296.547 195.467 296.28 196 295.747 196.4C295.347 196.933 294.814 197.2 294.147 197.2H277.347ZM285.947 65.2C282.08 65.2 278.814 63.9333 276.147 61.4C273.614 58.7333 272.347 55.5333 272.347 51.8C272.347 47.9333 273.614 44.6667 276.147 42C278.814 39.3333 282.08 38 285.947 38C289.814 38 293.08 39.3333 295.747 42C298.414 44.6667 299.747 47.9333 299.747 51.8C299.747 55.5333 298.414 58.7333 295.747 61.4C293.08 63.9333 289.814 65.2 285.947 65.2ZM398.584 186.4C397.118 186.933 395.318 187.4 393.184 187.8C391.051 188.2 388.718 188.533 386.184 188.8C383.784 189.067 381.184 189.2 378.384 189.2C375.718 189.333 373.118 189.333 370.584 189.2C362.184 188.667 354.718 186.867 348.184 183.8C341.784 180.6 336.384 176.467 331.984 171.4C327.584 166.333 324.251 160.4 321.984 153.6C319.851 146.667 318.784 139.2 318.784 131.2C318.784 122.8 320.118 115.067 322.784 108C325.451 100.933 329.184 94.8667 333.984 89.8C338.918 84.6 344.784 80.6 351.584 77.8C358.384 75 365.984 73.6 374.384 73.6C378.518 73.6 382.651 73.8667 386.784 74.4C391.051 74.8 395.184 75.6667 399.184 77C399.718 77.1333 400.118 77.4 400.384 77.8C400.651 78.2 400.718 79 400.584 80.2L398.784 94C398.651 94.9333 398.318 95.6 397.784 96C397.384 96.4 396.584 96.4667 395.384 96.2C392.451 95.1333 388.984 94.4 384.984 94C381.118 93.6 377.451 93.4 373.984 93.4C363.184 93.4 354.984 96.8667 349.384 103.8C343.784 110.733 340.984 119.867 340.984 131.2C340.984 142.133 343.584 150.933 348.784 157.6C354.118 164.267 361.784 168.2 371.784 169.4C380.984 170.467 389.184 169.867 396.384 167.6C397.718 167.067 398.518 167 398.784 167.4C399.184 167.8 399.451 168.4 399.584 169.2L400.584 183C400.718 184.067 400.651 184.867 400.384 185.4C400.251 185.8 399.651 186.133 398.584 186.4ZM482.859 186.6C481.926 186.6 481.326 186.533 481.059 186.4C480.793 186.133 480.659 185.6 480.659 184.8V175.8C477.326 180.467 473.059 184 467.859 186.4C462.793 188.667 457.659 189.8 452.459 189.8C446.993 189.8 441.926 189.067 437.259 187.6C432.726 186.133 428.793 183.933 425.459 181C422.259 178.067 419.726 174.467 417.859 170.2C415.993 165.8 415.059 160.733 415.059 155C415.059 148.2 416.259 142.267 418.659 137.2C421.059 132 424.793 127.733 429.859 124.4C435.059 120.933 441.659 118.4 449.659 116.8C457.659 115.067 467.326 114.2 478.659 114.2C478.659 111.667 478.393 109.133 477.859 106.6C477.326 104.067 476.393 101.8 475.059 99.8C473.859 97.8 472.126 96.2 469.859 95C467.593 93.6667 464.726 93 461.259 93C455.259 93 449.793 93.8 444.859 95.4C440.059 97 435.526 99.1333 431.259 101.8C429.126 103.133 427.659 103.733 426.859 103.6C426.193 103.467 425.859 102.733 425.859 101.4V86.2C425.859 85.6667 425.793 85.1333 425.659 84.6C425.659 83.9333 425.793 83.4 426.059 83C426.459 82.4667 427.459 81.7333 429.059 80.8C433.593 78.5333 438.193 76.6667 442.859 75.2C447.659 73.7333 453.659 73 460.859 73C474.326 73 484.259 76.2667 490.659 82.8C497.193 89.3333 500.459 99.6 500.459 113.6V161C500.459 164.733 500.459 168.667 500.459 172.8C500.593 176.8 500.859 180.333 501.259 183.4C501.526 185.533 500.793 186.6 499.059 186.6H482.859ZM479.259 133.2C464.459 133.2 453.859 135 447.459 138.6C441.059 142.2 437.859 147.6 437.859 154.8C437.859 159.867 439.326 163.667 442.259 166.2C445.193 168.733 449.126 170 454.059 170C461.659 170 467.726 167.2 472.259 161.6C476.926 156 479.259 147.267 479.259 135.4V133.2ZM604.444 186.4C602.977 186.933 601.177 187.4 599.044 187.8C596.91 188.2 594.577 188.533 592.044 188.8C589.644 189.067 587.044 189.2 584.244 189.2C581.577 189.333 578.977 189.333 576.444 189.2C568.044 188.667 560.577 186.867 554.044 183.8C547.644 180.6 542.244 176.467 537.844 171.4C533.444 166.333 530.11 160.4 527.844 153.6C525.71 146.667 524.644 139.2 524.644 131.2C524.644 122.8 525.977 115.067 528.644 108C531.31 100.933 535.044 94.8667 539.844 89.8C544.777 84.6 550.644 80.6 557.444 77.8C564.244 75 571.844 73.6 580.244 73.6C584.377 73.6 588.51 73.8667 592.644 74.4C596.91 74.8 601.044 75.6667 605.044 77C605.577 77.1333 605.977 77.4 606.244 77.8C606.51 78.2 606.577 79 606.444 80.2L604.644 94C604.51 94.9333 604.177 95.6 603.644 96C603.244 96.4 602.444 96.4667 601.244 96.2C598.31 95.1333 594.844 94.4 590.844 94C586.977 93.6 583.31 93.4 579.844 93.4C569.044 93.4 560.844 96.8667 555.244 103.8C549.644 110.733 546.844 119.867 546.844 131.2C546.844 142.133 549.444 150.933 554.644 157.6C559.977 164.267 567.644 168.2 577.644 169.4C586.844 170.467 595.044 169.867 602.244 167.6C603.577 167.067 604.377 167 604.644 167.4C605.044 167.8 605.31 168.4 605.444 169.2L606.444 183C606.577 184.067 606.51 184.867 606.244 185.4C606.11 185.8 605.51 186.133 604.444 186.4ZM630.519 29.2C634.252 29.2 637.319 30.7333 639.719 33.8C642.119 36.8667 643.452 40.4 643.719 44.4C644.119 49.3333 643.785 53.6 642.719 57.2C641.785 60.6667 640.185 64.0667 637.919 67.4C635.919 70.4667 633.519 73.1333 630.719 75.4C627.919 77.6667 624.785 79.1333 621.319 79.8C619.585 80.6 618.719 80.2667 618.719 78.8V71C618.719 69.9333 618.785 69.2667 618.919 69C619.185 68.6 619.585 68.2667 620.119 68C622.385 66.9333 624.319 65.4 625.919 63.4C627.652 61.2667 628.585 58.8667 628.719 56.2C625.919 55.5333 623.319 54.2 620.919 52.2C618.519 50.0667 617.319 47.2 617.319 43.6C617.319 39.3333 618.519 35.8667 620.919 33.2C623.452 30.5333 626.652 29.2 630.519 29.2ZM850.342 186.4C848.876 186.933 847.076 187.4 844.942 187.8C842.809 188.2 840.476 188.533 837.942 188.8C835.542 189.067 832.942 189.2 830.142 189.2C827.476 189.333 824.876 189.333 822.342 189.2C813.942 188.667 806.476 186.867 799.942 183.8C793.542 180.6 788.142 176.467 783.742 171.4C779.342 166.333 776.009 160.4 773.742 153.6C771.609 146.667 770.542 139.2 770.542 131.2C770.542 122.8 771.876 115.067 774.542 108C777.209 100.933 780.942 94.8667 785.742 89.8C790.676 84.6 796.542 80.6 803.342 77.8C810.142 75 817.742 73.6 826.142 73.6C830.276 73.6 834.409 73.8667 838.542 74.4C842.809 74.8 846.942 75.6667 850.942 77C851.476 77.1333 851.876 77.4 852.142 77.8C852.409 78.2 852.476 79 852.342 80.2L850.542 94C850.409 94.9333 850.076 95.6 849.542 96C849.142 96.4 848.342 96.4667 847.142 96.2C844.209 95.1333 840.742 94.4 836.742 94C832.876 93.6 829.209 93.4 825.742 93.4C814.942 93.4 806.742 96.8667 801.142 103.8C795.542 110.733 792.742 119.867 792.742 131.2C792.742 142.133 795.342 150.933 800.542 157.6C805.876 164.267 813.542 168.2 823.542 169.4C832.742 170.467 840.942 169.867 848.142 167.6C849.476 167.067 850.276 167 850.542 167.4C850.942 167.8 851.209 168.4 851.342 169.2L852.342 183C852.476 184.067 852.409 184.867 852.142 185.4C852.009 185.8 851.409 186.133 850.342 186.4Z" fill="black"/>
<path d="M737.499 164.481V98.1408C737.499 95.9708 736.113 94.0359 734.015 93.4823C712.288 87.7508 672.893 88.1124 670.999 127.5C669.081 167.389 707.62 176.753 734.155 169.08C736.183 168.494 737.499 166.592 737.499 164.481Z" fill="#81EC40"/>
<path d="M737.6 186.4C736.133 186.933 734.333 187.4 732.2 187.8C730.067 188.2 727.733 188.533 725.2 188.8C722.8 189.067 720.2 189.2 717.4 189.2C714.733 189.333 712.133 189.333 709.6 189.2C701.2 188.667 693.733 186.867 687.2 183.8C680.8 180.6 675.4 176.467 671 171.4C666.6 166.333 663.267 160.4 661 153.6C658.867 146.667 657.8 139.2 657.8 131.2C657.8 122.8 659.133 115.067 661.8 108C664.467 100.933 668.2 94.8667 673 89.8C677.933 84.6 683.8 80.6 690.6 77.8C697.4 75 705 73.6 713.4 73.6C717.533 73.6 721.667 73.8667 725.8 74.4C730.067 74.8 734.2 75.6667 738.2 77C738.733 77.1333 739.133 77.4 739.4 77.8C739.667 78.2 739.733 79 739.6 80.2L737.8 94C737.667 94.9333 737.333 95.6 736.8 96C736.4 96.4 735.6 96.4667 734.4 96.2C731.467 95.1333 728 94.4 724 94C720.133 93.6 716.467 93.4 713 93.4C702.2 93.4 694 96.8667 688.4 103.8C682.8 110.733 680 119.867 680 131.2C680 142.133 682.6 150.933 687.8 157.6C693.133 164.267 700.8 168.2 710.8 169.4C720 170.467 728.2 169.867 735.4 167.6C736.733 167.067 737.533 167 737.8 167.4C738.2 167.8 738.467 168.4 738.6 169.2L739.6 183C739.733 184.067 739.667 184.867 739.4 185.4C739.267 185.8 738.667 186.133 737.6 186.4Z" fill="black"/>
<rect x="645" y="106" width="74" height="20" rx="2" fill="black"/>
<rect x="645" y="137" width="74" height="20" rx="2" fill="black"/>
<path d="M941.63 88.9296C908.439 79.4916 890.259 107.626 885.228 123.087C885.179 123.239 885.151 123.384 885.14 123.543C884.097 139.161 887.527 172.329 909.569 181.938C931.613 191.548 956.241 165.632 965.954 151.27C966.051 151.125 966.123 150.98 966.179 150.815C971.867 133.956 974.821 98.3677 941.63 88.9296Z" fill="#81EC40"/>
<path d="M897.96 217.601L896.089 216.874C895.078 216.482 894.565 215.355 894.931 214.334L916.293 154.843L940.914 84.239L918.152 156.477L900.604 216.3C900.274 217.424 899.052 218.026 897.96 217.601Z" fill="#81EC40" stroke="black" stroke-width="17"/>
<path d="M886.424 124.151C876.536 152.925 896.936 173.724 908.584 180.679C908.735 180.769 908.889 180.834 909.059 180.879C924.665 185.064 951.436 184.472 963.357 151.461C975.344 118.271 950.35 86.6549 942.805 83.7717C935.259 80.8884 898.864 87.954 886.424 124.151Z" stroke="black" stroke-width="16"/>
</svg>
